X:3348
T:Connie Walsh's
T:C\'uil Aodha Slide, The
R:slide
Z:id:hn-slide-64
M:6/8
L:1/8
K:D
Bcd Bcd|c2B A2c|Bcd e2f|g3 f2g|agf gfe|f2d A2A|Bcd e2c|1 d3 c3:|2 d3 f2g||
|:agf gfe|f2d A3|Bcd e2f|g3 f2g|agf gfe|f2d A2A|Bcd e2c|1 d3 f2g:|2 d3 c3||


